dist/svg/u1F942.svg

<?xml version="1.0" encoding="UTF-8"?><svg id="Layer_1" xmlns="http://www.w3.org/2000/svg" viewBox="0 0 40 40"><g><path d="M36.82969,35.47119l-2.91964-.69372c-1.00895-.23973-1.77077-1.06886-1.92443-2.09445l-.75182-5.24399c-.2713-1.81083,.13068-3.66238,1.16311-5.1746,1.68564-2.46898,2.31587-7.34769,1.24627-13.74398-.28853-1.72543-.72463-3.67656-1.19137-5.29473-.13332-.4622-.5887-.7507-1.06315-.67136l-9.83473,1.64459c-.47446,.07934-.8112,.50031-.78688,.98074,.08514,1.68197,.30753,3.66884,.59606,5.39427,1.06978,6.3973,3.25359,10.80597,5.65126,12.59168,1.4687,1.09384,2.45171,2.71384,2.78466,4.51459l.98731,5.20142c.18857,1.0199-.26203,2.05198-1.13821,2.60701l-2.53824,1.60789c-.13797,.0874-.05626,.30112,.10483,.27418l9.60506-1.60619c.16109-.02694,.16882-.25561,.00992-.29337Z" style="fill:#e5e9ee;"/><path d="M27.61217,22.36346c-2.12768-1.58397-3.94966-5.43513-4.98344-10.45477,0,0,9.73833-4.95245,10.02836-3.22296,.96094,5.74609,.55469,10.61133-1.08594,13.01562-.79004,1.15625-2.83496,1.5-3.95898,.66211Z" style="fill:#ffda16;"/><path d="M22.62873,11.90869s2.2044-1.14568,4.47676-2.70665c2.27236-1.56097,5.24708-2.24331,5.5516-.51631,.30096,1.70681-10.02836,3.22296-10.02836,3.22296Z" style="fill:#ffc100;"/><g><path d="M13.41921,37.39779l-2.52471-1.62216c-.87247-.56058-1.31644-1.59533-1.1215-2.61388l1.1509-5.68669c.34419-1.7984,1.33711-3.41208,2.81238-4.49664,2.40866-1.77076,4.62021-6.16485,5.73097-12.55413,.29963-1.72354,.53484-3.70893,.63078-5.39032,.0274-.48026-.30662-.90339-.78056-.98578l-9.82394-1.70786c-.47394-.08239-.93117,.20318-1.06746,.66452-.47713,1.61513-.92581,3.5634-1.22544,5.28694-1.11093,6.39029-.5117,11.27355,1.15862,13.75299,1.02316,1.51878,1.4137,3.37302,1.13101,5.18235l-.91461,5.72457c-.16011,1.02475-.9273,1.84916-1.93791,2.08243l-2.92768,.67577c-.15914,.03673-.15288,.26545,.00803,.29343l9.59453,1.66798c.16091,.02797,.24399-.18521,.10659-.2735Z" style="fill:#e5e9ee;"/><path d="M9.18859,21.48641c-1.36165-2.02188-1.84624-5.76693-1.38112-10.30415,0,0,2.9728,.62038,5.93464,.18255,2.96184-.43783,4.73951-1.11199,4.73951-1.11199-.99775,5.74094-2.99271,10.19606-5.33747,11.91945-1.12972,.83087-3.17255,.47611-3.95556-.68585Z" style="fill:#ffda16;"/><path d="M7.80747,11.18225s2.9728,.62038,5.93464,.18255c2.96184-.43783,4.73951-1.11199,4.73951-1.11199-.99775,5.74094-10.67415,.92944-10.67415,.92944Z" style="fill:#ffc100;"/></g></g><rect y="0" width="40" height="40" style="fill:none;"/></svg>

<svg id="Layer_1" data-name="Layer 1" xmlns="http://www.w3.org/2000/svg" viewBox="0 0 40 40"><defs><style>.cls-1{fill:#e5e9ee;}.cls-2{fill:#ffda16;}.cls-3{fill:#ffc100;}.cls-4{fill:none;}</style></defs><path class="cls-1" d="M36.83,35.471l-2.92-.694a2.536,2.536,0,0,1-1.924-2.094l-.752-5.244A7.262,7.262,0,0,1,32.4,22.264c1.686-2.469,2.316-7.347,1.246-13.744a49.574,49.574,0,0,0-1.191-5.294.945.945,0,0,0-1.063-.672L21.554,4.2a.943.943,0,0,0-.787.981,49.852,49.852,0,0,0,.6,5.394c1.07,6.4,3.254,10.806,5.651,12.592A7.257,7.257,0,0,1,29.8,27.68l.987,5.2a2.539,2.539,0,0,1-1.138,2.607L27.11,37.1a.15.15,0,0,0,.105.274l9.605-1.606A.15.15,0,0,0,36.83,35.471Z"/><path class="cls-2" d="M27.612,22.363c-2.128-1.584-3.949-5.435-4.983-10.454,0,0,9.738-4.953,10.028-3.223.961,5.746.555,10.611-1.086,13.015A3.034,3.034,0,0,1,27.612,22.363Z"/><path class="cls-3" d="M22.629,11.909A48.184,48.184,0,0,0,27.105,9.2c2.273-1.561,5.248-2.243,5.552-.516C32.958,10.393,22.629,11.909,22.629,11.909Z"/><path class="cls-1" d="M13.419,37.4l-2.525-1.622a2.541,2.541,0,0,1-1.121-2.614l1.151-5.687a7.264,7.264,0,0,1,2.812-4.5c2.409-1.77,4.62-6.164,5.731-12.554a49.68,49.68,0,0,0,.631-5.39.945.945,0,0,0-.781-.986L9.494,2.34a.944.944,0,0,0-1.068.665A49.615,49.615,0,0,0,7.2,8.292c-1.111,6.39-.512,11.273,1.158,13.753A7.26,7.26,0,0,1,9.49,27.227l-.914,5.725a2.54,2.54,0,0,1-1.938,2.082L3.71,35.71A.149.149,0,0,0,3.718,36l9.6,1.668A.149.149,0,0,0,13.419,37.4Z"/><path class="cls-2" d="M9.189,21.486c-1.362-2.021-1.847-5.767-1.382-10.3a19.266,19.266,0,0,0,5.935.183,24.991,24.991,0,0,0,4.74-1.112c-1,5.741-2.993,10.2-5.338,11.919A3.034,3.034,0,0,1,9.189,21.486Z"/><path class="cls-3" d="M7.807,11.182a19.266,19.266,0,0,0,5.935.183,24.991,24.991,0,0,0,4.74-1.112C17.484,15.994,7.807,11.182,7.807,11.182Z"/><rect class="cls-4" width="40" height="40"/></svg>
